X:223
T:High Level Bridge. Newcastle  WHL.[221], The
B:W.H.Lister MS, East Boldon, c1850
Z:Village Music Project 2017 Mike Hicken
N: NB1 This note is missing on the image so I have guessed it.
C:Attributed to James Hill elsewhere
M:C|
L:1/8
Q:1/4=120
K:Bb
FA|BdFB DFBd|fbdf BdFB|ceAc FACE|AFcA ecAc|
BdFB DFBd|fbdf BdFB|G=Bcd egf_B|AFGA B2 :|
|:cB|Afcf Afcf|AFAc fcA"^NB1"c|dfBf dfBf|dBdf bfdf|
=egcg egcg|=eceg bgeg|fcaf =ecge|1 f=efg f2:|2 f=efg f_edc !D.C.!|]

